!!!OTL: An bunn&szlig;n buí, S. 124
!!!id: I0550
**kern
*clefG2
*k[]
*C:
{8cc
8b
=1
4a
4g
4f
8e
8f
=2
4.g
8a
8b
8a
8g
8e
=3
4g
8e
8d
4c
4d
=4
4c
4c
4c}
=5
{8cc
8b
=6
4a
4g
4f
8e
8f
=7
4g
8g
8a
8b
8a
8g
8e
=8
4g
8e
8d
4c
4d
=9
4c
4c
4.c}
=10
{8g
=11
4cc
4cc
4.cc
8dd
=12
4ee
8ff
8ee
4.dd
8dd
=13
4ee
8cc
8cc
4cc
8dd
8cc
=14
4b
4g
4g}
=15
{8cc
8b
=16
4a
4g
4f
8e
8f
=17
4.g
8a
8b
8a
8g
8e
=18
4g
8e
8d
4c
4d
=19
4c
4c
4c}
==
*-
!!!minrhy: 8
!!!meters: 4/4 ]  ZZ[4
!!!cut: An bunn&szlig;n buí, S. 124
!!!reg: Irland
!!!trd: O'SULLIVAN, Donal: Song of the Irish
!!!rhy1: XX  X_X_X_XX  X_.XXXXX  X_XXX_X_  X_X_X_
!!!rhy2: XX  X_X_X_XX  X_XXXXXX  X_XXX_X_  X_X_X_.
!!!key: I0550  08  C 4/4 ]  ZZ[4
!!!mod: HEPTATONIK IONISCH]  AMBITUS[11
!!!kad: 1151
!!!akz: 64575111_64575111_+1+1+3+2+3+175_64575111_
!!!fot: 'a__av_b__a__
!!!for: 'a__b__c__a__
!!!fok: 'Sd_Sd_^__Sd_
!! PHRAS[AUFTAKTIG]
!!!fkt: Trinklied
!! IRISCHE V
!! PR[1] 2K[3] 2G[6] 3K[6] 3G[14] 4A[0] 4Ü[0] 5A[6] 6K[0] 6G[0]
!! 7K[0] 7G[0] 8A[1] MEHR[0] SI[36] ABS[70] SR[9] SP[27]
!! ST[16] 2k[6] 2g[39] 3k[10] 3g[6] 4d[0] 4ü[0] 5d[3] 6k[0] 6g[0]
!! 7k[0] 7g[0] 8d[0] mehr[0] si[63] dm[-27] sr[44] sp[19]
!! 1F[11] 2F[56] 3F[28] 4F[4] LF[0] 2P[0] 3P[0] 4P[0] TRI[0] DF[4] AB[71]
!! TF[0] U3K[0] U3[0] U4[0] U4Ü[0] U5[0] U6K[0] U6[0] U7K[0] U7[0]
!! N1[8] N2K[0] N2[6] N3K[0] N3[11] N4[0] N4Ü[0] N5[14] N6K[0] N6[4]
!!!n7k: 0] N7[3] O1[20] O2K[0] O2[17] O3K[0] O3[14] HÖ[3
!!!RNB: symbol: &szlig; = sz ligature (UTF-8: ÃŸ)
